site/components/case-study/SVG/fortnum-figure.svg

<?xml version="1.0" encoding="UTF-8" standalone="no"?>
<svg width="213px" height="150px" viewBox="0 0 213 150" version="1.1" xmlns="http://www.w3.org/2000/svg" xmlns:xlink="http://www.w3.org/1999/xlink">
    <!-- Generator: sketchtool 40.1 (33804) - http://www.bohemiancoding.com/sketch -->
    <title>3ADB6AE6-73AD-4391-90C8-CE118128AB40</title>
    <desc>Created with sketchtool.</desc>
    <defs></defs>
    <g id="Symbols" stroke="none" stroke-width="1" fill="none" fill-rule="evenodd">
        <g id="F&amp;M-fact" transform="translate(-189.000000, -60.000000)" fill="#F8F8F8">
            <g id="Awards">
                <g transform="translate(189.000000, 60.000000)">
                    <path d="M57.6576577,150 C95.4954955,150 118.243243,132.207207 118.243243,108.108108 C118.243243,88.963964 104.504505,77.4774775 72.5225225,73.4234234 L72.5225225,72.2972973 C103.153153,68.2432432 115.990991,57.2072072 115.990991,37.1621622 C115.990991,17.1171171 96.3963964,0 58.7837838,0 C24.7747748,0 3.15315315,14.8648649 3.15315315,34.009009 C3.15315315,46.3963964 11.4864865,54.0540541 24.0990991,54.0540541 C37.3873874,54.0540541 43.6936937,46.3963964 43.6936937,36.9369369 C43.6936937,30.1801802 39.4144144,24.0990991 33.1081081,21.3963964 C36.2612613,19.5945946 43.018018,18.018018 49.3243243,18.018018 C64.8648649,18.018018 71.8468468,25.2252252 71.8468468,39.4144144 C71.8468468,57.6576577 63.963964,64.6396396 40.990991,64.6396396 L34.4594595,64.6396396 L34.4594595,84.6846847 L40.990991,84.6846847 C66.6666667,84.6846847 74.0990991,91.4414414 74.0990991,109.234234 C74.0990991,125.45045 63.7387387,131.981982 51.3513514,131.981982 C40.7657658,131.981982 31.7567568,129.954955 29.5045045,127.702703 C36.036036,125 40.5405405,118.918919 40.5405405,111.936937 C40.5405405,102.702703 34.009009,95.045045 20.7207207,95.045045 C8.33333333,95.045045 0,102.702703 0,115.765766 C0,134.90991 20.9459459,150 57.6576577,150 L57.6576577,150 Z" id="3"></path>
                    <path d="M213,94.4598214 C213,102.022356 211.919655,108.013374 209.758929,112.433036 C207.598202,116.852697 204.50448,120.535695 200.477679,123.482143 C197.040163,125.937513 193.258947,127.656247 189.133929,128.638393 C186.874984,130.995545 184.616087,132.517854 182.357143,133.205357 L182.357143,138.066964 C182.357143,138.26339 182.381695,138.533481 182.430799,138.877227 C182.479912,139.220984 182.774555,139.785708 183.314727,140.571429 C183.854909,141.357146 184.566964,142.069193 185.450893,142.707589 C186.334821,143.345986 187.783474,143.935265 189.79687,144.475446 C191.810276,145.015628 194.191952,145.285714 196.941964,145.285714 L198.857143,145.285714 L198.857143,150 L161.142857,150 L161.142857,145.285714 L163.058036,145.285714 C171.995577,145.285714 176.857137,143.026809 177.642857,138.508929 L177.642857,133.205357 C175.383913,132.517854 173.125016,130.995545 170.866071,128.638393 C166.544618,127.558029 162.763412,125.839295 159.522321,123.482143 C155.495515,120.535695 152.401796,116.852697 150.241071,112.433036 C148.276776,108.308017 147.19643,103.544674 147,98.1428571 L147,96.5223214 L147,93.4285714 L158.785714,93.4285714 L158.785714,84 L179.852679,84 L180,84 L180.147321,84 L201.066964,84 C201.26339,86.84823 201.26339,89.9910557 201.066964,93.4285714 L213,93.4285714 L213,94.4598214 Z M154.513393,110.370536 C157.06698,115.575918 160.848186,119.406237 165.857143,121.861607 C163.205348,117.049085 161.142867,110.419687 159.669643,101.973214 C159.571425,101.187494 159.424104,99.9107237 159.227679,98.1428571 L151.714286,98.1428571 C151.910715,102.758954 152.843742,106.834803 154.513393,110.370536 L154.513393,110.370536 Z M205.486607,110.370536 C207.156256,106.834803 208.089289,102.758954 208.285714,98.1428571 L200.772321,98.1428571 C200.674104,98.6339349 200.551344,99.2968671 200.404013,100.131701 C200.256692,100.966526 200.183036,101.580354 200.183036,101.973214 C198.709812,110.419687 196.647331,117.049085 193.995536,121.861607 C199.200918,119.30802 203.031237,115.477701 205.486607,110.370536 L205.486607,110.370536 Z" id="Trophy"></path>
                </g>
            </g>
        </g>
    </g>
</svg>

<svg width="213" height="150" viewBox="0 0 213 150" xmlns="http://www.w3.org/2000/svg"><g fill="#F8F8F8" fill-rule="evenodd"><path d="M57.658 150c37.837 0 60.585-17.793 60.585-41.892 0-19.144-13.738-30.63-45.72-34.685v-1.126c30.63-4.054 43.468-15.09 43.468-35.135C115.991 17.117 96.396 0 58.784 0c-34.01 0-55.63 14.865-55.63 34.009 0 12.387 8.332 20.045 20.945 20.045 13.288 0 19.595-7.658 19.595-17.117 0-6.757-4.28-12.838-10.586-15.54 3.153-1.802 9.91-3.379 16.216-3.379 15.54 0 22.523 7.207 22.523 21.396 0 18.244-7.883 25.226-30.856 25.226h-6.532v20.045h6.532c25.676 0 33.108 6.756 33.108 24.55 0 16.215-10.36 22.747-22.748 22.747-10.585 0-19.594-2.027-21.846-4.28C36.036 125 40.54 118.92 40.54 111.938c0-9.234-6.532-16.892-19.82-16.892C8.333 95.045 0 102.703 0 115.765 0 134.91 20.946 150 57.658 150zM213 94.46c0 7.562-1.08 13.553-3.241 17.973-2.16 4.42-5.255 8.103-9.281 11.05a32.142 32.142 0 0 1-11.344 5.155c-2.259 2.358-4.518 3.88-6.777 4.567v4.862c0 .196.025.466.074.81.049.344.344.909.884 1.694.54.786 1.252 1.498 2.136 2.137.884.638 2.332 1.227 4.346 1.767 2.013.54 4.395.81 7.145.81h1.915V150h-37.714v-4.714h1.915c8.938 0 13.8-2.26 14.585-6.777v-5.304c-2.26-.687-4.518-2.21-6.777-4.567-4.321-1.08-8.103-2.799-11.344-5.156-4.026-2.946-7.12-6.63-9.28-11.049-1.965-4.125-3.046-8.888-3.242-14.29v-4.714h11.786V84h42.281c.196 2.848.196 5.991 0 9.429H213v1.03zm-58.487 15.91c2.554 5.206 6.335 9.036 11.344 11.492-2.652-4.813-4.714-11.442-6.187-19.889-.099-.786-.246-2.062-.442-3.83h-7.514c.197 4.616 1.13 8.692 2.8 12.228zm50.974 0c1.67-3.535 2.602-7.611 2.799-12.227h-7.514a93.776 93.776 0 0 0-.368 1.989c-.147.835-.221 1.448-.221 1.841-1.473 8.447-3.536 15.076-6.187 19.889 5.205-2.554 9.035-6.384 11.49-11.491z"/></g></svg>
